!!!Melodie: eigene
!!!Typ: Gedicht
**kern	**silbe	**silbe	**silbe	**silbe	**silbe	**silbe	**silbe	**silbe	**silbe	**silbe	**silbe	**silbe	**silbe	**silbe
*clefG2	*lang:DE	*lang:DE	*lang:DE	*lang:DE	*lang:DE	*lang:DE	*lang:DE	*lang:DE	*lang:DE	*lang:DE	*lang:DE	*lang:DE	*lang:DE	*lang:DE
*k[b-]	*	*	*	*	*	*	*	*	*	*	*	*	*	*
*M4/4	*	*	*	*	*	*	*	*	*	*	*	*	*	*
4f	Herz	Las#	Kommt,	schwö#	Legt	dass	Hal#	dass	Ach	dass	Lie#	o,	Lass	bis
4g	und	#set	ach	#ret	es	ein	#le#	wir	du	sie	#be,	so	uns	schon
=	=	=	=	=	=	=	=	=	=	=	=	=	=	=
4a	Herz	eu#	kommt,	un#	un#	je#	#lu#	dem	hol#	es	hast	ma#	so	hier
4cc	ver#	#re	ihr	#ser'm	#ter	#der	#ja,	ins	#der	so	du	#che	ver#	auf
4b-	#eint	Lie#	Gna#	Ü#	euch,	für	wel#	Her#	Freund,	herz#	es	doch	#ei#	die#
4a	zu#	#bes#	#den#	#ber#	ihr	die	#che	#ze	ver#	#lich	ge#	die	#nigt	#ser
=	=	=	=	=	=	=	=	=	=	=	=	=	=	=
4g	#sam#	#flam#	#kin#	#win#	Glie#	Brü#	Hö#	se#	#ei#	mei#	#bo#	to#	wer#	Er#
4g	#men,	#men	#der,	#der	#der,	#der	#hen,	#hen,	#ne	#ne,	#ten,	#ten,	#den,	#den
4a	sucht	lo#	und	Lieb	auf	auch	wel#	der	dei#	wie’s	dass	trä#	wie	kein
4g	in	#dern	er#	und	so	das	#che	uns	#ne	dein	man	#gen	du	ge#
=	=	=	=	=	=	=	=	=	=	=	=	=	=	=
4f	Got#	auf	#neu#	Treu	treu#	Le#	Tie#	so	dir	letz#	Lie#	Gei#	mit	#trenn#
4g	#tes	den	#ert	aus	#es	#ben	#fen	ge#	ge#	#ter	#be	#ster	dem	#tes
4f	Her#	Hei#	eu#	Her#	Lie#	las#	rei#	#lie#	#weih#	Wil#	ü#	le#	Va#	Glied
4e	#zen	#land	#ren	#zens#	#ben	#sen	#cher	#bet	#te	#le	#ben	#bens#	#ter	mehr
=	=	=	=	=	=	=	=	=	=	=	=	=	=	=
2f	Ruh’.	zu.	Bund,	#grund;	an,	kann.	Gnad’,	hat;	Schar,	war.	soll,	#voll.	bist,	ist,
=:|	=	=	=	=	=	=	=	=	=	=	=	=	=	=
4e	.	Er	.	und	.	So	.	dass	.	Ja,	.	Zün#	.	und
4f	.	das	.	wenn	.	hat	.	der	.	ver#	.	#de	.	al#
=	=	=	=	=	=	=	=	=	=	=	=	=	=	=
4g	.	Haupt,	.	eu#	.	uns	.	Va#	.	#bin#	.	an	.	#lein
4g	.	wir	.	#rer	.	der	.	#ter	.	#de	.	die	.	von
4f	.	sei#	.	Lie#	.	Freund	.	al#	.	in	.	Lie#	.	dei#
4e	.	#ne	.	#bes#	.	ge#	.	#ler	.	der	.	#bes#	.	#nem
=	=	=	=	=	=	=	=	=	=	=	=	=	=	=
4d	.	Glie#	.	#ket#	.	#lie#	.	Gei#	.	Wahr#	.	#flam#	.	Bren#
4d	.	#der,	.	#te,	.	#bet,	.	#ster,	.	#heit,	.	#me,	.	#nen
4e	.	er	.	Fes#	.	so	.	der	.	die	.	dass	.	neh#
4f	.	das	.	#tig#	.	ver#	.	der	.	du	.	ein	.	#me
=	=	=	=	=	=	=	=	=	=	=	=	=	=	=
4g	.	Licht	.	#keit	.	#goss	.	Wun#	.	selbst	.	je#	.	un#
4a	.	und	.	und	.	er	.	#der	.	im	.	#der	.	#ser
4b-	.	wir	.	Stär#	.	dort	.	Ab#	.	We#	.	se#	.	Licht
4a	.	der	.	#ke	.	sein	.	#grund	.	#sen	.	#hen	.	den
=	=	=	=	=	=	=	=	=	=	=	=	=	=	=
2g	.	Schein,	.	fehlt,	.	Blut;	.	ist,	.	bist,	.	kann:	.	Schein;
4f	.	er	.	o	.	denkt	.	dass	.	al#	.	wir	.	al#
4g	.	er	.	so	.	doch,	.	du,	.	#les,	.	als	.	#so
=	=	=	=	=	=	=	=	=	=	=	=	=	=	=
4a	.	Mei#	.	fle#	.	wie	.	un#	.	was	.	die	.	wird
4cc	.	#ster,	.	#het	.	es	.	#sicht#	.	von	.	von	.	die
4b-	.	wir	.	um	.	ihn	.	#ba#	.	dei#	.	ei#	.	Welt
4a	.	die	.	die	.	be#	.	#rer	.	#ner	.	#nem	.	er#
=	=	=	=	=	=	=	=	=	=	=	=	=	=	=
4g	.	Brü#	.	Wet#	.	#trü#	.	Mei#	.	Klar#	.	Stam#	.	#ken#
4g	.	#der,	.	#te,	.	#bet,	.	#ster,	.	#heit	.	#me,	.	#nen,
4a	.	er	.	bis	.	wenn	.	uns	.	in	.	ste#	.	dass
4g	.	ist	.	sie	.	ihr	.	so	.	der	.	#hen	.	wir
=	=	=	=	=	=	=	=	=	=	=	=	=	=	=
4f	.	un#	.	Je#	.	euch	.	fühl#	.	Tat	.	auch	.	dei#
4g	.	#ser,	.	#sus	.	selbst	.	#bar	.	er#	.	für	.	#ne
4f	.	wir	.	wie#	.	Ein#	.	na#	.	#leuch#	.	ei#	.	Jün#
4e	.	sind	.	#der	.	#trag	.	#he	.	#tet	.	#nen	.	#ger
=	=	=	=	=	=	=	=	=	=	=	=	=	=	=
2f	.	sein.	.	stählt.	.	tut.	.	bist.	.	ist.	.	Mann.	.	sein.
==	==	==	==	==	==	==	==	==	==	==	==	==	==	==
*-	*-	*-	*-	*-	*-	*-	*-	*-	*-	*-	*-	*-	*-	*-
